X:1
T:Title
%%score [ ( 1 2 ) ( 3 4 ) ]
L:1/8
Q:1/4=120
M:4/4
K:D
V:1 treble nm=" " snm=" "
V:2 treble 
V:3 bass nm="Midi_74"
V:4 bass 
V:1
!f! d4 d2 d2 |"^/ Mnogaya leta" (d3 c) c4 | B4 B2 B2 | (B3 ^A)"^D. Bortnyansky" A4 | (B8 | %5
 A4) A2 A2 | (A8 | A2 B4 c2) | d4 !fermata!z4 |] %9
V:2
 A4 A2 A2 | A4 A4 | F4 F2 F2 | F4 F4 | (D2 C2 D2 E2 | F2 E2) FE FG | (F4 E4 | F4 G4) | F4 z4 |] %9
w: |* ,||* ,|||||.|
w: Mno- ga- ya|lye- ta,|mno- ga- ya|lye- ta,|mno * * *|* * ga * ya *|lye *||ta.|
V:3
 F4 F2 F2 | (F3 E) E4 | D4 D2 D2 | (D3 C) C4 |"^This edition  Andrew Sims 2012" (B,2 A,2 B,2 C2 | %5
 D2 C2) DC DE | (D4 C4 | D4 E4) | A,4 z4 |] %9
V:4
 [D,D]4 D,2 F,2 | A,4 [A,,A,]4 | [B,,B,]4 B,,2 D,2 | F,4 F,4 | (G,8 | F,2 A,2) F,2 D,2 | A,8 | %7
 [A,,A,]8 | D,4 z4 |] %9

